public/icons/forms/password.svg

<svg width="8" height="10" viewBox="0 0 8 10" fill="none" xmlns="http://www.w3.org/2000/svg">
<path id="Vector" d="M7.72727 3.66667H6.18182V2C6.18182 1.46957 5.95195 0.960859 5.54278 0.585786C5.13361 0.210714 4.57865 0 4 0C3.42135 0 2.86639 0.210714 2.45722 0.585786C2.04805 0.960859 1.81818 1.46957 1.81818 2V3.66667H0.272727C0.200396 3.66667 0.131026 3.69301 0.0798799 3.73989C0.0287337 3.78677 0 3.85036 0 3.91667V9.75C0 9.8163 0.0287337 9.87989 0.0798799 9.92678C0.131026 9.97366 0.200396 10 0.272727 10H7.72727C7.7996 10 7.86897 9.97366 7.92012 9.92678C7.97127 9.87989 8 9.8163 8 9.75V3.91667C8 3.85036 7.97127 3.78677 7.92012 3.73989C7.86897 3.69301 7.7996 3.66667 7.72727 3.66667ZM5.31818 3.66667H2.68182V1.98438C2.68182 1.66391 2.8207 1.35656 3.0679 1.12995C3.31511 0.903348 3.6504 0.776042 4 0.776042C4.3496 0.776042 4.68489 0.903348 4.9321 1.12995C5.1793 1.35656 5.31818 1.66391 5.31818 1.98438V3.66667Z" fill="black"/>
</svg>

<svg xmlns="http://www.w3.org/2000/svg" fill="none" viewBox="0 0 8 10"><path fill="#000" d="M7.73 3.67H6.18V2c0-.53-.23-1.04-.64-1.41C5.14.2 4.58 0 4 0c-.58 0-1.13.21-1.54.59-.41.37-.64.88-.64 1.41v1.67H.27a.29.29 0 0 0-.19.07.24.24 0 0 0-.08.18v5.83c0 .07.03.13.08.18.05.04.12.07.2.07h7.45c.07 0 .14-.03.19-.07A.24.24 0 0 0 8 9.75V3.92a.24.24 0 0 0-.08-.18.29.29 0 0 0-.2-.07Zm-2.41 0H2.68V1.98c0-.32.14-.62.39-.85.25-.23.58-.35.93-.35.35 0 .68.12.93.35.25.23.39.53.39.85v1.69Z"/></svg>
